!!!!SEGMENT: pl-kk--kk-i-389--009-003_anonim--missa-no-9-gloria.krn
!!!cenid: 17xx:2516
!!!COM: Anonim
!!!COM-rismID: pe30004985
!!!CDT:
!!!CNT:
!!!OPR: [Missa] No. 9.
!!!OTL: Gloria
!!!OMV: 003
!!!PDT:
!!!AGN: Sacred; Mass
!!!YEC: Copyright 2022 Narodowy Instytut Fryderyka Chopina (https://polishscores.org)
!!!YEM: License CC-BY-4.0 (https://creativecommons.org/licenses/by/4.0)
!!!SMS-siglum: PL-Kk
!!!SMS-shelfmark: Kk.I.389
!!!SMS-variant:
!!!SMS-altvar:
!!!SMS-shelfwork: 009-003 M
!!!NIFC-rismSourceID: 1001146182
!!!NIFC-rismChildID: 1001147253
!!!NIFC-islandoraID: pl-kk:6976
!!!URL-pdf-islandora: https://repozytorium.nifc.pl/islandora/object/pl-kk%3A6976/datastream/PDF/view
!!!URL-scan: https://polish.musicsources.pl/pl/lokalizacje/galeria/rekopisy/5999/1 @EN{Scan on Polish Music Sources Website} @PL{Skany w portalu Dziedzictwo Muzyki Polskiej w otwartym dostępie}
!!!IIIF:
!!!AIN: 1 alto 1 bass 1 soprn 1 tenor
!!!key: C
!!!ONB-nifc: UWAGA: S – skan 15-16, A – 34-35, T – 53-54, B – 72-73. Części Mszy: Rorate, Kyrie, Gloria, Graduale, Sanctus, Benedictus, Agnus, Dona.
**kern	**text	**kern	**text	**kern	**text	**kern	**text
*part4	*part4	*part3	*part3	*part2	*part2	*part1	*part1
*staff4	*staff4	*staff3	*staff3	*staff2	*staff2	*staff1	*staff1
*I"Basso.	*	*I"Tenore.	*	*I"Alto.	*	*I"Soprano.	*
*I'B.	*	*I'T.	*	*I'A.	*	*I'S.	*
*ICvox	*	*ICvox	*	*ICvox	*	*ICvox	*
*Ibass	*	*Itenor	*	*Ialto	*	*Isoprn	*
*clefF4	*	*clefC4	*	*clefC3	*	*clefC1	*
*k[]	*	*k[b-]	*	*k[b-]	*	*k[b-]	*
*C:	*	*C:	*	*C:	*	*C:	*
*M3/4	*	*M3/4	*	*M3/4	*	*M3/4	*
=1	=1	=1	=1	=1	=1	=1	=1
*	*	*	*	*	*	*all\right:global	*
4.c\	Et	4.e\	Et	4.g\	Et	4.g\	Et
8G\	in	8d\	in	8f\	in	8g\	in
8E\	ter-	8c\	ter-	8e\	ter-	8g\	ter-
8G\	-ra	8d\	-ra	8f\	-ra	8g\	-ra
=2	=2	=2	=2	=2	=2	=2	=2
4C/	pax	4c\	pax	4e\	pax	4g\	pax
4c\	pax	4e\	pax	4g\	pax	4cc\	.
4B\	ho-	4d\	ho-	4f\	ho-	4g\	ho-
=3	=3	=3	=3	=3	=3	=3	=3
4.c\	-mi-	4.c\	-mi-	4.e\	-mi-	4.g\	-mi-
8G\	-ni-	8d\	-ni-	8f\	-ni-	8g\	-ni-
4C/	-bus	4c\	-bus	4e\	-bus	4g\	-bus
=4	=4	=4	=4	=4	=4	=4	=4
8G\	bo-	8B-\	bo-	8d\	bo-	8dd\	bo-
8G\	-ne	8c\	-ne	8e\	-ne	8cc\	-ne
4B\	vo-	4d\	vo-	4f\	vo-	4g\	vo-
4c\	-lun-	4c\	-lun-	4e\	-lun-	4g\	-lun-
=5	=5	=5	=5	=5	=5	=5	=5
4G\	-ta-	4c\	-ta-	4e\	-ta-	4g\	-ta-
4GG/	-tis	4B-\	-tis	4d\	-tis	4g\	-tis
8G\L	Lau-	4r	.	4g\	Lau-	8b-\L	Lau-
8A\J	.	.	.	.	.	8cc\J	.
!	!	!	!	!LO:LB:g=original	!	!LO:LB:g=original	!
=6	=6	=6	=6	=6	=6	=6	=6
*	*	*	*	*2\right	*	*	*
!	!	!LO:TX:a:t=1.	!	!	!	!	!
8B\L	-da-	2.r	.	2g\	-da-	8dd\L	-da-
8c\	.	.	.	.	.	8ee\J	.
8d\	.	.	.	.	.	8ff\L	.
8B\J	.	.	.	.	.	8ee\J	.
!LO:LB:g=original	!	!	!	!	!	!	!
8G\L	-mus	.	.	4g\	-mus	8ee\L	-mus
8F\J	.	.	.	.	.	8dd\J	.
!	!	!LO:LB:g=original	!	!	!	!	!
=7	=7	=7	=7	=7	=7	=7	=7
4E\	te,	8r	.	8g\	te,	4cc\	te,
.	.	8c\	be-	8e\	be-	.	.
4r	.	8c\	-ne-	8e\	-ne-	4r	.
.	.	8d\	-di-	8f\	-di-	.	.
4r	.	8e\	-ci-	8g\	-ci-	4r	.
.	.	8c\	-mus	8e\	-mus	.	.
=8	=8	=8	=8	=8	=8	=8	=8
8B\	a-	4B-\	te,	8d\	te	8dd\	a-
8c\	-do-	.	.	8r	.	8ee\	-do-
8d\L	-ra-	4r	.	4r	.	8ff\L	-ra-
8B\J	.	.	.	.	.	8dd\J	.
8G\L	-mus	4r	.	4r	.	8ee\L	-mus
8F\J	.	.	.	.	.	8dd\J	.
=9	=9	=9	=9	=9	=9	=9	=9
8E\	te	8r	.	8r	.	8cc\	te
8C\	glo-	8e\	glo-	8g\	glo-	8cc\	glo-
8E\	-ri-	8c\	-ri-	8g\	-ri-	8ee\	-ri-
8G\	-fi-	8c\	-fi-	8e\	-fi-	8cc\	-fi-
8c\L	-ca-	8e\L	-ca-	4g\	-ca-	8cc\L	-ca-
8B\J	.	8d\J	.	.	.	8dd\J	.
=10	=10	=10	=10	=10	=10	=10	=10
8c\L	.	8e\L	.	8g\L	.	8cc\L	.
8F\J	.	8f\J	.	8a\J	.	8dd\J	.
4G\	.	4e\	.	4g\	.	4cc\	.
4GG/	-mus	4d\	-mus	4g\	-mus	4b-\	-mus
!	!	!	!	!	!	!LO:LB:g=original	!
=11	=11	=11	=11	=11	=11	=11	=11
4C/	te,	4e\	te,	4g\	te,	4cc\	te,
!	!	!	!	!LO:LB:g=original	!	!	!
4r	.	8c\L	Gra-	4e\	Gra-	8a\L	gra-
.	.	8e\J	.	.	.	8cc\J	.
4r	.	8d\	-ti-	8e\	-ti-	8b-\	-ti-
.	.	8c\	-as	8e\	-as	8a\	-as
!LO:LB:g=original	!	!LO:LB:g=original	!	!	!	!	!
=12	=12	=12	=12	=12	=12	=12	=12
!LO:TX:a:t=2	!	!	!	!	!	!	!
!LO:N:vis=0	!	!	!	!	!	!	!
1.r	.	4.B-\	a-	4.e\	a-	4.g#X\	a-
.	.	8d\	.	8e\	-gi-	8b-\	.
.	.	8c\	-gi-	4e\	-mus	8a\	-gi-
.	.	8B-\	-mus	.	.	8g#\	-mus
=13-	=13	=13	=13	=13	=13	=13	=13
.	.	4c\	ti-	4e\	ti-	4a\	ti-
.	.	4B-\	-bi	4e\	-bi	4g#X\	-bi
.	.	4r	.	4r	.	4r	.
=14	=14	=14	=14	=14	=14	=14	=14
*2\right	*	*2\right	*	*	*	*2\right	*
2G#X\	pro-	2d\	pro-	2f\	pro-	2b-\	pro-
4A\	-pter	4c\	-pter	4e\	-pter	4a\	-pter
=15	=15	=15	=15	=15	=15	=15	=15
4B\	ma-	4d\	ma-	4f\	ma-	4g#X\	ma-
4E\	gnam	4B-\	-gnam	4d\	.	4g#\	-gnam
4A\	glo-	4c\	glo-	4e\	-gnam	4a\	glo-
=16	=16	=16	=16	=16	=16	=16	=16
8F\	-ri-	8d\	-ri-	8d\	glo-	8a\	-ri-
8D\	-am	8B-\	-am	8e\	-riam	8b-\	-am
2E\	tu-	4c\	tu-	2e\	tu-	4a\	tu-
.	.	4B-\	.	.	.	4g#X\	.
!	!	!	!	!	!	!LO:LB:g=original	!
=17	=17	=17	=17	=17	=17	=17	=17
4AA/	-am	4c\	-am,	4e\	-am,	4a\	-am,
4C/	Do-	4e\	Do-	4g\	Do-	4cc\	Do-
8BB/	-mi-	8d\	-mi-	8f\	-mi-	8gn\	-mi-
8C/	-ne	8c\	-ne	8e\	-ne	8g\	-ne
!	!	!	!	!LO:LB:g=original	!	!	!
=18	=18	=18	=18	=18	=18	=18	=18
4GG/	De-	4c\	De-	4e\	De-	4g\	De-
4G\	-us	4B-\	-us	4d\	-us	4g\	-us
8B\	Rex	8d\	Rex	8f\	Rex	8g\	Rex
8G\	ce-	8B-\	ce-	8d\	ce-	8b-\	ce-
!	!	!LO:LB:g=original	!	!	!	!	!
=19	=19	=19	=19	=19	=19	=19	=19
4G\	-les-	4c\	-les-	4e\	-les-	4cc\	-les-
4c\	-tis	4e\	-tis	4g\	-tis	4g\	-tis
8c\	De-	8e\	De-	8g\	De-	8g\	De-
8B\	-us	8d\	-us	8g\	-us	8g\	-us
!LO:LB:g=original	!	!	!	!	!	!	!
=20	=20	=20	=20	=20	=20	=20	=20
8A\L	Pa-	4c\	Pa-	8f\L	Pa-	4cc\	Pa-
8E\J	.	.	.	8e\J	.	.	.
8F\	-ter	8B-\	-ter	8d\	-ter	8dd\	-ter
8F\	om-	8B-\	om-	8d\	om-	8b-\	om-
8G\	-ni-	8c\	-ni-	8e\	-ni-	8g\	-ni-
8GG/	-po-	8B-\	-po-	8d\	-po-	8g\	-po-
=21	=21	=21	=21	=21	=21	=21	=21
4C/	-tens,	4c\	-tens	4e\	-tens	4g\	-tens,
4r	.	8A\L	Do-	8f\L	Do-	4cc\	Do-
.	.	8c\J	.	8a\J	.	.	.
4r	.	8B-X\	-mi-	8g\	-mi-	8e/	-mi-
.	.	8A\	-ne	8f\	-ne	8f/	-ne
!	!	!	!	!	!	!LO:LB:g=original	!
=22	=22	=22	=22	=22	=22	=22	=22
!LO:TX:a:t=4.	!	!	!	!	!	!	!
!LO:N:vis=00	!	!	!	!	!	!	!
0.r	.	4G/	Fi-	4e\	fi-	4cc\	Fi-
.	.	4G/	-li	4e\	-li	4cc\	-li
.	.	8G/	u-	8e\	u-	8cc\	u-
.	.	8G/	-ni-	8f\	-ni-	8cc\	-ni-
=23-	=23	=23	=23	=23	=23	=23	=23
.	.	4.B-X\	-ge-	4.g\	-ge-	4.cc\	-ge-
.	.	8A\	-ni-	8f\	-ni-	8cc\	-ni-
.	.	4G/	-te	4e\	-te	4cc\	-te
!	!	!	!	!LO:LB:g=original	!	!	!
=24-	=24	=24	=24	=24	=24	=24	=24
.	.	4A\	Je-	4f\	Je-	4cc\	Je-
.	.	4B-X\	.	4g\	.	4e/	.
.	.	4c\	-su	4a\	-su	4f/	-su
!	!	!LO:LB:g=original	!	!	!	!	!
=25-	=25	=25	=25	=25	=25	=25	=25
.	.	8d\L	Chri-	8b-X\L	Je-	8g\L	Je-
.	.	8B-\J	.	8g\J	-su	8b-X\J	-su
.	.	4A/	.	4f\	Chri-	2cc\	Chri-
.	.	4G/	.	4e\	.	.	.
=26	=26	=26	=26	=26	=26	=26	=26
4r	.	4A\	-ste,	4f\	-ste,	4f/	-ste,
4F\	Do-	4A\	Do-	4f\	Do-	4f/	Do-
8F\	-mi-	8Bn\	-mi-	8d\	-mi-	8g/	-mi-
8F\	-ne	8B-\	-ne	8d\	-ne	8g/	-ne
=27	=27	=27	=27	=27	=27	=27	=27
4E\	De-	4c\	De-	4g\	De-	2g\	De-
4BB/	.	4d\	.	4f\	.	.	.
4C/	-us	4c\	-us	4e\	-us	4g\	-us
=28	=28	=28	=28	=28	=28	=28	=28
8C/L	A-	8c\L	a-	8e\L	A-	2g\	a-
8BB/J	.	8B-\	.	8d\	.	.	.
8C/L	.	8c\	.	8e\	.	.	.
8D/J	.	8B-\J	.	8f\J	.	.	.
8E\L	-gnus	4c\	-gnus	8g\L	-gnus	8g\L	-gnus
8F\J	.	.	.	8a\J	.	8cc\J	.
!LO:LB:g=original	!	!	!	!	!	!LO:LB:g=original	!
=29	=29	=29	=29	=29	=29	=29	=29
.	.	.	.	.	.	8qcc/	.
4G\	De-	4d\	De-	4g\	De-	4b-\	De-
4GG/	-i	4d\	-i	4g\	-i	4b-\	-i
8GG/	Fi-	8d\	Fi-	8g\	Fi-	8b-\	Fi-
16AA/	-li-	16d\	-li-	16f\	-li-	16cc\	-li-
16BB/	-us	16d\	-us	16g\	-us	16dd\	-us
!	!	!	!	!LO:LB:g=original	!	!	!
=30	=30	=30	=30	=30	=30	=30	=30
4C/	Pa-	4e\	Pa-	4g\	Fi-	4cc\	Pa-
4D/	.	4d\	.	4f\	-li-	4b-\	.
4E\	.	4c\	.	4e\	-us	4g\	.
!	!	!LO:LB:g=original	!	!	!	!	!
=31	=31	=31	=31	=31	=31	=31	=31
4F\	.	4A\	.	4d\	Pa-	4a\	-tris,
4G\	.	4c\	.	4e\	.	2g\	Pa-
4GG/	.	4B-\	.	4d\	.	.	.
=32	=32	=32	=32	=32	=32	=32	=32
4C/	-tris	2c\	-tris,	2e\	-tris,	2g\	-tris,
4r	.	.	.	.	.	.	.
8C/L	Qui	4c\	qui	4e\	qui	4g\	Qui
8E/J	.	.	.	.	.	.	.
=33	=33	=33	=33	=33	=33	=33	=33
4G\	tol-	4B-\	tol-	4d\	tol-	4dd\	tol-
8G\	-lis	8B-\	-lis	8d\	-lis	8dd\	-lis
8A\	pe-	8c\	pec-	8g\	pec-	8cc\	pe-
8B\	-ca-	8d\	-ca-	8g\	-ca-	8b-\	-ca-
8G\	-ta	8B-\	-ta	8g\	-ta	8dd\	-ta
=34	=34	=34	=34	=34	=34	=34	=34
4c\	mun-	4e\	mun-	4g\	mun-	4cc\	mun
4C/	-di	4e\	-di	4g\	-di	4cc\	di
8c\	mi-	8e\	mi-	8g\	mi-	4r	.
8B\	-se-	8d\	-se-	8g\	-se-	.	.
!LO:LB:g=original	!	!	!	!	!	!	!
=35	=35	=35	=35	=35	=35	=35	=35
!	!	!	!	!	!	!LO:TX:a:t=1.	!
8A\L	-re-	8c\L	-re-	8f\L	-re-	2.r	.
8F\J	.	8d\J	.	8a\J	.	.	.
8E\L	-re	8c\L	-re	8g\L	-re	.	.
8F\J	.	8B-\J	.	8f\J	.	.	.
!LO:TX:t=P:problem:mixed beam	!	!	!	!	!	!	!
8G\L	no-	8c\L	no-	8e\L	no-	.	.
8GG/J	.	8B-\J	.	8d\J	.	.	.
!	!	!	!	!	!	!LO:LB:g=original	!
=36	=36	=36	=36	=36	=36	=36	=36
4C/	-bis	4c\	-bis,	4e\	-bis,	4r	.
!	!	!	!	!LO:LB:g=original	!	!	!
4r	.	4r	.	4r	.	4r	.
4c\	qui	4e\	qui	4g\	qui	4cc\	qui
!	!	!LO:PB:g=original	!	!	!	!	!
=37	=37	=37	=37	=37	=37	=37	=37
4B\	tol-	4d\	tol-	4g\	tol-	4dd\	tol-
8B\	-lis	8d\	-lis	8g\	-lis	8dd\L	-lis
8c\	pec-	8e\	pec-	8g\	pec-	8cc\J	pec-
8d\	-ca-	8f\	-ca-	8g\	-ca-	8b-\L	-ca-
8c\	-ta	8e\	-ta	8g\	-ta	8cc\J	-ta
=38	=38	=38	=38	=38	=38	=38	=38
8B-\L	mun-	8d\L	mun-	8g\L	mun-	4g\	mun-
8A\J	.	8c\J	.	8f#X\J	.	.	.
4G\	-di	4B-\	-di	4g\	-di,	4dd\	-di
4r	.	4r	.	4r	.	4r	.
=39	=39	=39	=39	=39	=39	=39	=39
8G\L	su-	8B-X/L	su-	8e\L	su-	4.cc\	sus-
8E\J	.	8G/J	.	8g\	.	.	.
8C\L	-sci-	8E/L	-sci-	8b-X\J	.	.	.
8E\J	.	8G/J	.	8g\	-sci-	8cc\	-ci-
4F\	-pe	4A/	-pe,	4fn\	-pe	4cc\	-pe
=40	=40	=40	=40	=40	=40	=40	=40
!	!	!	!	!	!	!LO:TX:a:t=1.	!
8F\	de-	8c\	de-	8a\	de-	2.r	.
8E\	-pre-	8c\	-pre-	8g\	-pre-	.	.
!LO:LB:g=original	!	!	!	!	!	!	!
8F\	-ca-	8c\	-ca-	8a\	-ca-	.	.
8E\	-ti-	8c\	-ti-	8g\	-ti-	.	.
8D\	-o-	8Bn\	-o-	8f\	-o-	.	.
8C\	-nem	8c\	-nem	8e\	-nem	.	.
=41	=41	=41	=41	=41	=41	=41	=41
4G\	no-	4c\	no-	4e\	no-	4r	.
4GG/	-stram	4B-\	-stram	4d\	-stram	4r	.
4G\	qui	4B-\	qui	4d\	qui	4g\	qui
!	!	!LO:LB:g=original	!	!LO:LB:g=original	!	!	!
=42	=42	=42	=42	=42	=42	=42	=42
8E\L	se-	4c\	se-	8g\L	se-	4g\	se-
8G\J	.	.	.	8e\J	.	.	.
8E\	-des	8c\	-des	8g\	-des	8g\	-des
8C/	ad	8G/	ad	8e\	ad	8g\	ad
8BB/	dex-	8G/	dex-	8d\	dex-	8g\	dex-
16C/	-te-	16G/	-te-	16e\	-te-	16g\	-te-
16BB/	-ram	16G/	-ram	16e\	-ram	16g\	-ram
!	!	!	!	!	!	!LO:LB:g=original	!
=43	=43	=43	=43	=43	=43	=43	=43
4GG/	Pa-	4c\	Pa-	4e\	Pa-	4g\	Pa-
4G\	-tris	4B-\	-tris	4d\	-tris	4g\	-tris
8G\	mi-	8B-\	mi-	8g\	mi-	8dd\	mi-
8G\	-se-	8B-\	-se-	8g\	-se-	8dd\	-se-
=44	=44	=44	=44	=44	=44	=44	=44
4A\	-re-	4c\	-re-	4f#X\	-re-	4cc\	-re-
4B\	.	4d\	.	4fn\	.	4g\	.
4c\	-re	4c\	-re	4e\	-re	4g\	-re
=45	=45	=45	=45	=45	=45	=45	=45
4F\	no-	4A\	no-	8f\L	no-	8f/L	no-
.	.	.	.	8d\J	.	8a/J	.
4G\	.	4c\	.	4e\	.	2g\	.
4GG/	.	4B-\	.	4d\	.	.	.
!LO:LB:g=original	!	!	!	!	!	!	!
=46	=46	=46	=46	=46	=46	=46	=46
2C/	-bis,	2c\	-bis,	2e\	-bis	2g\	-bis,
4r	.	4r	.	4r	.	4r	.
!	!	!	!	!LO:LB:g=original	!	!	!
=47	=47	=47||	=47||	=47||	=47||	=47||	=47||
8c\	Quo-	8e\	Quo-	8g\	Quo-	8g\	Quo-
8G\	-ni-	8d\	-ni-	8f\	-ni-	8g\	-ni-
8E\	-am	8c\	-am	8e\	-am	8g\	-am
8G\	tu	8B-\	tu	8g\	tu	8g\	tu
16F\LL	so-	8c\L	so-	16a\LL	so-	8g\	so-
16E\JJ	.	.	.	16g\JJ	.	.	.
16D\LL	-lus	16B-\L	-lus	16f\LL	-lus	8g\	-lus
16C\JJ	.	16c\JJ	.	16e\JJ	.	.	.
!	!	!LO:LB:g=original	!	!	!	!	!
=48	=48	=48	=48	=48	=48	=48	=48
4GG/	san-	4c\	san-	4e\	san-	4g\	san-
4G\	-ctus	4B-\	-ctus,	4d\	-ctus	4g\	-ctus
4G\	tu	8B-\L	tu	8d\L	tu	4g\	tu
.	.	8c\J	.	8e\J	.	.	.
!	!	!	!	!	!	!LO:LB:g=original	!
=49	=49	=49	=49	=49	=49	=49	=49
8G\L	so-	8d\L	so-	4f\	so-	8b-\L	so-
8A\	.	8c\J	.	.	.	8cc\	.
8B\	.	8B-\L	.	4g\	.	8dd\	.
8G\J	.	8d\J	.	.	.	8b-\J	.
8A\L	-lus	8c\L	-lus	4g\	-lus	8cc\L	-tus
8B\J	.	8B-\J	.	.	.	8dd\J	.
=50	=50	=50	=50	=50	=50	=50	=50
8c\L	Do-	8c\	Do-	8g\	Do-	8ee\	Do-
8G\J	mi-	8B-\	-mi-	8f\	-mi-	8dd\	-mi-
4C/	-nus	4G/	-nus	4e\	-nus	4cc\	-nus
4C/	tu	4G/	tu	4e\	tu	4cc\	tu
=51	=51	=51	=51	=51	=51	=51	=51
4BB/	so-	4G/	so-	4d\	so-	4g\	so-
4D/	-lus	4B-\	.	4f\	-lus	4g\	-lus
4C/	al-	8c\	-lus	4e\	al-	4g\	al-
.	.	8c\	al-	.	.	.	.
!LO:LB:g=original	!	!	!	!LO:LB:g=original	!	!	!
=52	=52	=52	=52	=52	=52	=52	=52
8.G\	-tis-	8.G/	-tis-	8.d\	-tis-	8.b-\	-tis-
16G\	-si-	16G/	-si-	16d\	-si-	16b-\	-si-
4G\	-mus	4G/	-mus	4d\	-mus,	4b-\	-mus
4r	.	4r	.	4r	.	4r	.
=53	=53	=53	=53	=53	=53	=53	=53
4G\	Je-	2B-\	Je-	2d\	Je-	4ff\	Je-
4F\	.	.	.	.	.	4dd\	.
4E\	-su	8c\L	-su	8e\L	-su	4cc\	-su
.	.	8e\J	.	8g\J	.	.	.
!	!	!LO:LB:g=original	!	!	!	!	!
=54	=54	=54	=54	=54	=54	=54	=54
8F\	Je-	8f\	Je-	8a\	Je-	4dd\	Chri-
8A\	-su	8d\	-su	8f\	-su	.	.
4G\	Chri-	4c\	Chri-	4e\	Chri-	2g\	.
4GG/	.	4B-\	.	4d\	.	.	.
!	!	!	!	!	!	!LO:LB:g=original	!
=55	=55	=55	=55	=55	=55	=55	=55
4C/	-ste	4c\	-ste,	4e\	-ste,	4g/	-ste,
4r	.	4r	.	4r	.	4r	.
4G\	Cum	4B-\	Cum	4d\	Cum	4g/	Cum
=56	=56	=56	=56	=56	=56	=56	=56
4.c\	san-	4.c\	sa-	4.e\	san-	2g\	san-
8G\	.	8d\	.	8f\	.	.	.
8E\L	-cto	8e\L	-cto	4g\	-ctus	4g\	-cto
8G\J	.	8c\J	.	.	.	.	.
=57	=57	=57	=57	=57	=57	=57	=57
8E\	spi-	8c\	spi-	8g\	Spi-	8g\	spi-
8D\	-ri-	8B-\	-ri-	8f\	-ri-	8g\	-ri-
4C/	-tu	4G/	-tu	4e\	-tu	4cc\	-tu
4GG/	in	4B-\	in	4d\	in	4g\	in
!	!	!	!	!LO:LB:g=original	!	!	!
=58	=58	=58	=58	=58	=58	=58	=58
4C/	glo-	4c\	glo-	4e\	glo-	4g\	glo-
8E\	-ri-	8c\	-ri-	8g\L	-ri-	8g\	-ri-
8D\	-a	8B-\	-a	8f\J	-a	8g\	-a
!LO:LB:g=original	!	!	!	!	!	!	!
16C/LL	De-	8c\	De-	16e\LL	De-	8g\	De-
16D/JJ	.	.	.	16f\	.	.	.
16E\LL	-i	8c\	-i	16g\	-i	16g\LL	-i
16F\JJ	.	.	.	16a\JJ	.	16a\JJ	.
=59	=59	=59	=59	=59	=59	=59	=59
4G\	Pa-	4e\	Pa-	4g\	Pa-	4cc\	Pa-
4GG/	-tris	4d\	-tris,	4g\	-tris	4b-\	-tris
4r	.	4r	.	4r	.	4r	.
!	!	!LO:LB:g=original	!	!	!	!	!
=60	=60	=60	=60	=60	=60	=60	=60
4G\	a-	4B-\	a-	2f\	a-	4dd\	a-
4B\	.	4d\	.	.	.	4g\	.
4c\	-men	4c\	-men	4e\	-men	4g\	-men
!	!	!	!	!	!	!LO:LB:g=original	!
=61	=61	=61	=61	=61	=61	=61	=61
4G\	a-	4c\	a-	4e\	a-	2g\	a-
4F\	.	4B-\	.	4d\	.	.	.
4E\	-men	4c\	-men	4c\	-men	4g\	-men
=62	=62	=62	=62	=62	=62	=62	=62
4F\	a-	4A\	a-	4d\	a-	4a\	a-
4G\	.	4c\	.	4e\	.	2g\	.
4GG/	.	4B-\	.	4d\	.	.	.
=63	=63	=63	=63	=63	=63	=63	=63
4C/	-men	4c\	-men	4e\	-men	4g\	-men
4r	.	4r	.	4r	.	4r	.
4GG/	a-	4B-\	a-	4d\	a-	4g\	a-
=64	=64	=64	=64	=64	=64	=64	=64
2C/	-men.	2c\	-men.	2e\	-men.	2g\	-men.
4r	.	4r	.	4r	.	4r	.
==	==	==	==	==	==	==	==
*-	*-	*-	*-	*-	*-	*-	*-
!!!system-decoration: [(s1,s2,s3,s4)]
!!!ENC: Berenika Jozajtis
!!!END: 2023-11-12
!!!ENC: Leszek Kubiak
!!!END: 2024-01-20
